Desktop/project_createx/public/images/decor/lines2-white.svg

<svg width="319" height="243" viewBox="0 0 319 243" fill="none" xmlns="http://www.w3.org/2000/svg">
<g opacity="0.4">
<path d="M56.9036 187.559C39.479 180.478 28.1757 171.687 22.8635 161.239C17.5638 150.815 18.1737 138.631 24.8226 124.619C38.1999 96.4278 51.9327 71.7865 66.02 50.6928C80.0429 29.6956 102.415 14.5936 133.198 5.41811C163.896 -3.73169 194.683 2.06602 225.597 22.8842C241.057 33.2949 252.109 44.8111 258.788 57.4227C265.463 70.0281 267.785 83.7544 265.744 98.6186C261.638 128.535 257.242 154.142 252.557 175.442C247.897 196.627 235.573 214.942 215.537 230.388C205.557 238.083 194.928 241.99 183.642 242.139C172.35 242.287 160.358 238.673 147.658 231.253C122.121 216.333 91.8685 201.769 56.9036 187.559Z" stroke="white"/>
<path d="M76.2162 174.259C62.0736 168.509 52.9158 161.382 48.6133 152.928C44.3232 144.498 44.8067 134.64 50.1927 123.286C61.0445 100.411 72.1856 80.418 83.6148 63.3053C94.9796 46.2891 113.121 34.0489 138.1 26.6161C162.992 19.2089 187.966 23.9169 213.058 40.8132C225.607 49.263 234.573 58.604 239.992 68.8262C245.408 79.0423 247.294 90.1649 245.645 102.211C242.321 126.492 238.761 147.273 234.964 164.558C231.193 181.727 221.206 196.572 204.956 209.092C196.868 215.323 188.258 218.483 179.116 218.599C169.968 218.716 160.245 215.785 149.94 209.764C129.193 197.641 104.617 185.807 76.2162 174.259Z" stroke="white"/>
<path d="M88.0928 166.11C75.9737 161.183 68.14 155.08 64.4622 147.854C60.7968 140.651 61.2054 132.223 65.8173 122.502C75.1207 102.89 84.6716 85.7508 94.4689 71.0815C104.202 56.5087 119.74 46.0218 141.146 39.6522C162.466 33.3082 183.857 37.3384 205.357 51.8158C216.11 59.0562 223.788 67.0573 228.428 75.809C233.064 84.5546 234.679 94.0762 233.267 104.391C230.417 125.208 227.364 143.025 224.11 157.843C220.881 172.545 212.329 185.259 198.406 195.985C191.482 201.32 184.115 204.023 176.293 204.123C168.466 204.222 160.142 201.715 151.314 196.557C133.521 186.161 112.447 176.012 88.0928 166.11Z" stroke="white"/>
</g>
</svg>

<svg xmlns="http://www.w3.org/2000/svg" width="319" height="243" fill="none"><g stroke="#fff" opacity=".4"><path d="M56.904 187.559c-17.425-7.081-28.728-15.872-34.04-26.32-5.3-10.424-4.69-22.608 1.959-36.62Q44.889 82.333 66.02 50.693c14.023-20.997 36.395-36.1 67.178-45.275 30.698-9.15 61.485-3.352 92.399 17.466 15.46 10.41 26.512 21.927 33.191 34.539 6.675 12.605 8.997 26.331 6.956 41.196q-6.16 44.873-13.187 76.823c-4.66 21.185-16.984 39.5-37.02 54.946-9.98 7.695-20.609 11.602-31.895 11.751-11.292.148-23.284-3.466-35.984-10.886q-38.307-22.38-90.754-43.694Z"/><path d="M76.216 174.259c-14.142-5.75-23.3-12.877-27.603-21.331-4.29-8.43-3.806-18.288 1.58-29.642q16.278-34.312 33.422-59.98C94.98 46.288 113.12 34.048 138.1 26.615c24.892-7.407 49.866-2.7 74.958 14.197 12.549 8.45 21.515 17.791 26.934 28.013 5.416 10.216 7.302 21.339 5.653 33.385q-4.986 36.42-10.681 62.347c-3.771 17.169-13.758 32.014-30.008 44.534-8.088 6.231-16.698 9.391-25.84 9.507-9.148.117-18.871-2.814-29.176-8.835q-31.122-18.184-73.724-35.505Z"/><path d="M88.093 166.11c-12.12-4.927-19.953-11.03-23.63-18.256-3.666-7.203-3.258-15.631 1.354-25.352q13.956-29.417 28.652-51.42c9.733-14.573 25.271-25.06 46.677-31.43 21.32-6.344 42.711-2.314 64.211 12.164 10.753 7.24 18.431 15.241 23.071 23.993 4.636 8.746 6.251 18.267 4.839 28.582q-4.276 31.225-9.157 53.452c-3.229 14.702-11.781 27.416-25.704 38.142-6.924 5.335-14.291 8.038-22.113 8.138-7.827.099-16.151-2.408-24.979-7.566q-26.69-15.594-63.221-30.447Z"/></g></svg>
